X: 321
T: Valley Forge
B: canberra pickers and fiddlers
B: tunes
M:C|
L:1/8
Q: 1/4=100
K:Dmixolydian
V:1 
"D"f4d2AB|"C"c2cd cBAB|c2cd cBAG|"D"Add^cd4|
"D"f4d2AB|"C"c2cd cBAB|c2cd cBAG|"D"FDEFD4:||
"D"F4D2DE|FEFG ABAG|F2FED2D2|"A"EDED FDED|
"D"F3ED2DE|FEFG ABAG|F2FED2D2|"A"EDEF"D"D4||
"Am"C4A,2A,B,|C2CD CB,A,B,|CB,CD CB,A,G,|"D"A,D-DED4|
"Am"C4A,2A,B,|C2CD CB,A,B,|CB,CD CB,A,2|"D"A,D-DED2|]
% abcbook-tune_id 63da5934495e57b1ef6a36b8
% abcbook-tune_composer_id 
% abcbook-link-0 https://www.youtube.com/watch?v=mWggzZu2YZw
% abcbook-boost 0
% abcbook-difficulty 0
% abcbook-tags canberra pickers and fiddlers,old time tunes,© free
% abcbook-tablature 
% abcbook-transpose 
% abcbook-tuning ADAE
% abcbook-lastupdated 1698716593686
% abcbook-src-url https://tunebook.net/scrape/tunes.abc
% abcbook-soundfonts 
% abcbook-repeats 1
%%gchordfont "itim-music,Itim" 20

